icons/svg/seamark/notice_information_waterbikespermitted.svg

<?xml version="1.0" encoding="UTF-8" standalone="no"?>
<svg
   xmlns:dc="http://purl.org/dc/elements/1.1/"
   xmlns:cc="http://creativecommons.org/ns#"
   xmlns:rdf="http://www.w3.org/1999/02/22-rdf-syntax-ns#"
   xmlns:svg="http://www.w3.org/2000/svg"
   xmlns="http://www.w3.org/2000/svg"
   xmlns:sodipodi="http://sodipodi.sourceforge.net/DTD/sodipodi-0.dtd"
   xmlns:inkscape="http://www.inkscape.org/namespaces/inkscape"
   width="320"
   height="320"
   id="svg2"
   version="1.1"
   inkscape:version="0.48.4 r9939"
   sodipodi:docname="notice_information_radioinformation.svg">
  <defs
     id="defs13">
    <inkscape:path-effect
       effect="gears"
       id="path-effect3774"
       is_visible="true"
       teeth="6"
       phi="-1.2" />
    <inkscape:path-effect
       effect="bend_path"
       id="path-effect3772"
       is_visible="false"
       bendpath="m 95.790098,316.51174 c 144.429032,-206.42506 223.313032,-11.7428 339.548092,0"
       prop_scale="1.19"
       scale_y_rel="false"
       vertical="false"
       bendpath-nodetypes="cc" />
  </defs>
  <sodipodi:namedview
     pagecolor="#ffffff"
     bordercolor="#666666"
     borderopacity="1"
     objecttolerance="10"
     gridtolerance="10"
     guidetolerance="10"
     inkscape:pageopacity="0"
     inkscape:pageshadow="2"
     inkscape:window-width="1920"
     inkscape:window-height="1004"
     id="namedview11"
     showgrid="true"
     inkscape:zoom="2.3017543"
     inkscape:cx="115.78968"
     inkscape:cy="163.9273"
     inkscape:window-x="1680"
     inkscape:window-y="0"
     inkscape:window-maximized="1"
     inkscape:current-layer="svg2"
     inkscape:snap-bbox="true"
     inkscape:object-nodes="true"
     inkscape:snap-midpoints="true"
     inkscape:snap-grids="true"
     inkscape:snap-bbox-edge-midpoints="true"
     showguides="true"
     inkscape:guide-bbox="true">
    <inkscape:grid
       type="xygrid"
       id="grid2990"
       empspacing="5"
       visible="true"
       enabled="true"
       snapvisiblegridlinesonly="true"
       spacingx="10px"
       spacingy="10px"
       dotted="false" />
    <sodipodi:guide
       orientation="1,0"
       position="55.202458,260.58927"
       id="guide3872" />
    <sodipodi:guide
       orientation="1,0"
       position="265.17816,340"
       id="guide3874" />
    <sodipodi:guide
       orientation="0,1"
       position="317.80107,264.96094"
       id="guide3876" />
    <sodipodi:guide
       orientation="0,1"
       position="325.098,54.759006"
       id="guide3878" />
  </sodipodi:namedview>
  <metadata
     id="metadata2975">image/svg+xmlen<rdf:RDF>
  <cc:Work
     rdf:about="">
    <dc:format>image/svg+xml</dc:format>
    <dc:type
       rdf:resource="http://purl.org/dc/dcmitype/StillImage" />
    <dc:title></dc:title>
  </cc:Work>
</rdf:RDF>
</metadata>
  <path
     inkscape:connector-curvature="0"
     style="font-size:40px;font-style:normal;font-variant:normal;font-weight:normal;font-stretch:normal;text-align:start;line-height:125%;writing-mode:lr-tb;text-anchor:start;fill:#fefefe;fill-opacity:1;stroke:none;font-family:NPSPICT3;-inkscape-font-specification:NPSPICT3"
     d="m 124.58066,120.67488 c 3.02106,-0.0558 5.57467,-1.11218 7.66077,-3.16922 2.08596,-2.05691 3.10124,-4.59759 3.04583,-7.62205 0.0376,-2.90099 -0.96867,-5.42126 -3.01894,-7.56079 -2.0504,-2.13936 -4.58778,-3.181338 -7.61209,-3.125975 -3.00796,-0.05092 -5.55825,0.978825 -7.65085,3.089105 -2.0927,2.11046 -3.10467,4.62443 -3.03591,7.54192 -0.051,3.00798 0.95198,5.55494 3.009,7.64088 2.0569,2.08613 4.59097,3.15484 7.60217,3.20613 z m 56.77494,19.80846 c -17.3057,0.31603 -19.39486,-0.0583 -19.39486,-0.0583 -2.47599,-0.70412 -3.19313,1.25896 -3.82559,2.28051 -0.84968,1.3724 -0.924,2.93328 0.89922,3.9109 l 13.37662,8.26005 c 0,0 -0.18871,5.56268 -5.08124,10.16302 -4.89254,4.60033 -26.62406,11.32189 -26.62406,11.32189 l -0.19337,-5.81391 -11.89,-9.32842 0.65402,-14.86548 17.09215,3.0002 c 3.00069,-1.20834 4.13055,-3.26156 3.38956,-6.15967 -0.34434,-1.34626 -1.21866,-2.39203 -2.62297,-3.13738 -1.40444,-0.74518 -2.75311,-0.84138 -4.04603,-0.28861 l -12.137,-2.78052 -1.01002,-3.52824 c 0.0348,-2.90465 -0.99963,-5.43004 -3.10331,-7.57618 -2.10383,-2.14599 -4.61286,-3.18448 -7.52713,-3.11545 -3.01119,-0.0513 -5.56308,0.9782 -7.65568,3.08851 -2.09272,2.11045 -3.1581,4.6178 -3.19617,7.52203 l 1.30135,31.40506 c 0.54338,1.38223 16.05936,10.25398 16.05936,10.25398 l 0.32935,6.33846 c 0,0 -18.18644,8.73138 -23.4573,14.90011 -4.434997,5.19048 -4.54498,15.584 -4.54498,15.584 3.20144,-2.58296 7.75958,-4.02257 11.1358,-4.55962 5.1616,-0.82105 7.72514,0.65552 11.20194,1.30854 2.0763,0.35123 4.14949,0.26219 6.21957,-0.26718 2.07314,-0.5301 3.93618,-1.44759 5.58911,-2.75241 2.63217,-2.21515 5.6043,-3.7462 8.91641,-4.59314 1.96884,-0.50346 4.7295,-0.60332 8.28198,-0.29963 3.55236,0.30379 6.20872,0.23057 7.96909,-0.21959 2.07313,-0.5301 3.93616,-1.44758 5.58913,-2.75242 2.73642,-2.24181 5.76069,-3.78619 9.07284,-4.63315 2.0731,-0.53011 4.14669,-0.72951 6.22075,-0.59828 2.07389,0.13131 4.1357,0.32041 6.18548,0.56729 24.6073,-13.794 22.76709,-14.7465 29.08289,-21.96918 6.51393,-7.44925 11.06164,-24.0257 11.06164,-24.0257 -12.46944,-8.30718 -26.01285,-6.89807 -43.31855,-6.58204 z m 26.22789,69.04736 c -1.91462,-0.19706 -4.6332,0.11421 -8.15576,0.93383 -3.5228,0.81961 -6.18783,1.13641 -7.99514,0.9504 -1.9146,-0.19706 -4.5128,-1.05557 -7.79456,-2.57555 -3.28198,-1.51996 -9.70117,-5.22623 -11.4996,-4.96803 -1.90517,0.27352 -2.60476,0.13182 -5.82309,1.7819 -3.2185,1.65012 -5.78025,2.61192 -7.68525,2.88542 -1.90191,0.27306 -4.60333,0.0669 -8.10427,-0.61852 -3.50105,-0.68538 -6.2041,-0.89131 -8.1091,-0.61781 -1.9019,0.27306 -4.43621,1.23091 -7.60291,2.87358 -3.1668,1.6427 -5.70272,2.60079 -7.60774,2.87429 -1.90189,0.27307 -4.60332,0.0669 -8.10427,-0.61852 -3.50103,-0.68538 -6.20406,-0.89131 -8.1091,-0.61781 -1.90511,0.27351 -4.46685,1.23531 -7.68525,2.8854 -3.21844,1.65011 -10.852077,3.68482 -12.757129,3.95833 l -0.09234,10.61005 c 1.905052,-0.27351 11.294339,-1.33287 14.512789,-2.98293 3.21839,-1.65012 5.78013,-2.61192 7.68525,-2.88544 1.79848,-0.2582 4.47488,-0.0484 8.02918,0.62932 3.55424,0.6777 6.28229,0.88008 8.18419,0.60702 1.90501,-0.2735 4.44093,-1.23161 7.60774,-2.87427 3.1667,-1.64269 5.70101,-2.60055 7.60291,-2.87361 1.905,-0.2735 4.60805,-0.0675 8.1091,0.61784 3.50093,0.68537 6.20235,0.89156 8.10427,0.6185 1.905,-0.2735 4.46674,-1.23532 7.68525,-2.8854 3.21833,-1.6501 2.74545,-1.43943 4.65061,-1.71296 1.79843,-0.2582 6.52846,3.4364 9.81043,4.95638 3.28178,1.51994 5.87997,2.37846 7.79457,2.57552 1.80731,0.18602 4.47234,-0.13079 7.99515,-0.95037 3.52255,-0.81965 6.24114,-1.13092 8.15576,-0.93386 1.91436,0.19703 11.32838,-0.14196 17.05497,4.84814 1.40051,0.61782 2.16809,1.36524 2.80682,1.94162 l -0.0697,-12.48011 c -0.67107,-0.66037 -1.04598,-0.87301 -1.53884,-1.10423 -6.48688,-4.77286 -15.14062,-4.65109 -17.05499,-4.84812 z"
     id="flowRoot3192"
     sodipodi:nodetypes="csccccccccccscczccccccccccccsccccscscccscccsccsczccscscssscsscccssscssscssscsccccccccc" />
</svg>

<svg width="320" height="320" viewBox="0 0 320 320" fill="none" xmlns="http://www.w3.org/2000/svg">
<path d="M124.581 120.674C127.602 120.619 130.155 119.562 132.241 117.505C134.327 115.448 135.343 112.908 135.287 109.883C135.325 106.982 134.319 104.462 132.268 102.322C130.218 100.183 127.681 99.1411 124.656 99.1964C121.648 99.1455 119.098 100.175 117.005 102.286C114.913 104.396 113.901 106.91 113.969 109.827C113.918 112.835 114.921 115.382 116.978 117.468C119.035 119.554 121.569 120.623 124.581 120.674H124.581ZM181.356 140.483C164.05 140.799 161.961 140.425 161.961 140.425C159.485 139.72 158.768 141.684 158.135 142.705C157.285 144.078 157.211 145.638 159.034 146.616L172.411 154.876C172.411 154.876 172.222 160.439 167.33 165.039C162.437 169.639 140.706 176.361 140.706 176.361L140.512 170.547L128.622 161.219L129.276 146.353L146.368 149.353C149.369 148.145 150.499 146.092 149.758 143.194C149.414 141.847 148.539 140.802 147.135 140.056C145.731 139.311 144.382 139.215 143.089 139.768L130.952 136.987L129.942 133.459C129.977 130.554 128.942 128.029 126.839 125.883C124.735 123.737 122.226 122.698 119.312 122.767C116.3 122.716 113.749 123.746 111.656 125.856C109.563 127.966 108.498 130.474 108.46 133.378L109.761 164.783C110.304 166.165 125.82 175.037 125.82 175.037L126.15 181.375C126.15 181.375 107.963 190.107 102.692 196.275C98.2575 201.466 98.1475 211.859 98.1475 211.859C101.349 209.277 105.907 207.837 109.283 207.3C114.445 206.479 117.008 207.955 120.485 208.608C122.562 208.96 124.635 208.871 126.705 208.341C128.778 207.811 130.641 206.894 132.294 205.589C134.926 203.374 137.898 201.843 141.21 200.996C143.179 200.492 145.94 200.392 149.492 200.696C153.045 201 155.701 200.927 157.461 200.476C159.535 199.946 161.398 199.029 163.051 197.724C165.787 195.482 168.811 193.938 172.123 193.091C174.196 192.561 176.27 192.361 178.344 192.493C180.418 192.624 182.48 192.813 184.53 193.06C209.137 179.266 207.297 178.313 213.613 171.091C220.126 163.641 224.674 147.065 224.674 147.065C212.205 138.758 198.661 140.167 181.356 140.483V140.483ZM207.583 209.53C205.669 209.333 202.95 209.644 199.428 210.464C195.905 211.284 193.24 211.601 191.433 211.415C189.518 211.217 186.92 210.359 183.638 208.839C180.356 207.319 173.937 203.613 172.138 203.871C170.233 204.144 169.534 204.003 166.315 205.653C163.097 207.303 160.535 208.265 158.63 208.538C156.728 208.811 154.027 208.605 150.526 207.92C147.025 207.234 144.322 207.028 142.417 207.302C140.515 207.575 137.981 208.533 134.814 210.176C131.647 211.818 129.111 212.776 127.206 213.05C125.304 213.323 122.603 213.117 119.102 212.431C115.601 211.746 112.898 211.54 110.993 211.813C109.088 212.087 106.526 213.049 103.307 214.699C100.089 216.349 92.4554 218.384 90.5503 218.657L90.458 229.267C92.363 228.994 101.752 227.934 104.971 226.284C108.189 224.634 110.751 223.672 112.656 223.399C114.455 223.141 117.131 223.35 120.685 224.028C124.239 224.706 126.967 224.908 128.869 224.635C130.774 224.362 133.31 223.404 136.477 221.761C139.644 220.118 142.178 219.16 144.08 218.887C145.985 218.614 148.688 218.82 152.189 219.505C155.69 220.191 158.391 220.397 160.293 220.124C162.198 219.85 164.76 218.888 167.979 217.238C171.197 215.588 170.724 215.799 172.629 215.525C174.428 215.267 179.158 218.962 182.44 220.482C185.721 222.002 188.32 222.86 190.234 223.057C192.042 223.243 194.707 222.926 198.229 222.107C201.752 221.287 204.471 220.976 206.385 221.173C208.3 221.37 217.714 221.031 223.44 226.021C224.841 226.639 225.608 227.386 226.247 227.963L226.177 215.483C225.506 214.822 225.131 214.61 224.638 214.378C218.152 209.606 209.498 209.727 207.583 209.53H207.583Z" fill="#FEFEFE"/>
</svg>
